src/shared/assets/icons/computer.svg

<svg width="19.799805" height="20.699999" viewBox="0 0 19.7998 20.7" fill="none" xmlns="http://www.w3.org/2000/svg" xmlns:xlink="http://www.w3.org/1999/xlink">
	<path d="M0.899902 0C0.661133 2.28882e-05 0.432617 0.0948524 0.263672 0.26363C0.0947266 0.432407 0 0.661312 0 0.900002L0 15.3C0 15.5387 0.0947266 15.7676 0.263672 15.9364C0.432617 16.1051 0.661133 16.2 0.899902 16.2L7.19824 16.2L7.19824 18L3.44727 18C3.21826 18 2.99854 18.0877 2.83203 18.2443L1.04248 19.923C0.744629 20.2011 0.943848 20.7 1.35156 20.7L18.4482 20.7C18.856 20.7 19.0557 20.2003 18.7578 19.9213L16.9683 18.2426C16.8008 18.0869 16.5815 18 16.353 18L12.5981 18L12.5981 16.2L18.8999 16.2C19.1387 16.2 19.3677 16.1051 19.5361 15.9364C19.7051 15.7676 19.7998 15.5387 19.7998 15.3L19.7998 0.900002C19.7998 0.661312 19.7051 0.432407 19.5361 0.26363C19.3677 0.0948524 19.1387 2.28882e-05 18.8999 0L0.899902 0ZM1.7998 1.8L18 1.8L18 14.4L1.7998 14.4L1.7998 1.8ZM7.18262 4.49121C6.94873 4.49818 6.72656 4.5959 6.56348 4.76367L3.86377 7.46367C3.69482 7.63246 3.6001 7.86135 3.6001 8.1C3.6001 8.33865 3.69482 8.56754 3.86377 8.73633L6.56348 11.4363C6.64648 11.5227 6.74609 11.5917 6.85596 11.6392C6.96582 11.6867 7.08398 11.7118 7.20361 11.713C7.32373 11.7142 7.44238 11.6915 7.55322 11.6463C7.66406 11.601 7.76465 11.5341 7.84961 11.4494C7.93408 11.3647 8.00098 11.264 8.04639 11.1532C8.09131 11.0423 8.11426 10.9235 8.11279 10.8038C8.11182 10.6841 8.08691 10.5658 8.03906 10.4558C7.9917 10.3459 7.92285 10.2466 7.83643 10.1637L5.77246 8.1L7.83643 6.03633C7.96631 5.90991 8.05518 5.74715 8.09131 5.56939C8.12695 5.39162 8.1084 5.20713 8.03809 5.04011C7.96729 4.87308 7.84766 4.7313 7.69482 4.63336C7.54248 4.53541 7.36377 4.48586 7.18262 4.49121ZM12.5913 4.49121C12.4121 4.49126 12.2373 4.5447 12.0889 4.6447C11.9404 4.7447 11.8247 4.88672 11.7573 5.0526C11.6899 5.21848 11.6738 5.40069 11.7104 5.57592C11.7471 5.75116 11.8354 5.91146 11.9639 6.03633L14.0273 8.1L11.9639 10.1637C11.8774 10.2466 11.8081 10.3459 11.7607 10.4558C11.7134 10.5658 11.688 10.6841 11.687 10.8038C11.6855 10.9235 11.7085 11.0423 11.7539 11.1532C11.7988 11.264 11.8657 11.3647 11.9507 11.4494C12.0352 11.5341 12.1357 11.601 12.2471 11.6463C12.3579 11.6915 12.4766 11.7142 12.5962 11.713C12.7158 11.7118 12.8345 11.6867 12.9443 11.6392C13.0542 11.5917 13.1533 11.5227 13.2363 11.4363L15.9365 8.73633C16.105 8.56754 16.1997 8.33865 16.1997 8.1C16.1997 7.86135 16.105 7.63246 15.9365 7.46367L13.2363 4.76367C13.1523 4.67746 13.0522 4.60893 12.9414 4.56213C12.8306 4.51533 12.7114 4.49122 12.5913 4.49121Z" fill="#FFFFFF" fill-opacity="1.000000" fill-rule="nonzero" />
</svg>

<svg xmlns="http://www.w3.org/2000/svg" width="19.8" height="20.7" fill="none"><path fill="#FFF" d="M.9 0a.9.9 0 0 0-.9.9v14.4a.9.9 0 0 0 .9.9h6.298V18h-3.75a.898.898 0 0 0-.616.244l-1.79 1.679a.45.45 0 0 0 .31.777h17.096a.45.45 0 0 0 .31-.779l-1.79-1.678a.903.903 0 0 0-.615-.243h-3.755v-1.8H18.9a.899.899 0 0 0 .9-.9V.9a.9.9 0 0 0-.9-.9H.9Zm.9 1.8H18v12.6H1.8V1.8Zm5.383 2.691a.901.901 0 0 0-.62.273l-2.7 2.7a.9.9 0 0 0 0 1.272l2.7 2.7a.902.902 0 0 0 1.483-.283.902.902 0 0 0-.21-.99L5.772 8.1l2.064-2.064a.903.903 0 0 0 .202-.996.9.9 0 0 0-.855-.549Zm5.408 0a.9.9 0 0 0-.627 1.545L14.027 8.1l-2.063 2.064a.897.897 0 0 0-.013 1.285.894.894 0 0 0 .645.264.9.9 0 0 0 .64-.277l2.7-2.7a.9.9 0 0 0 0-1.272l-2.7-2.7a.901.901 0 0 0-.645-.273Z"/></svg>
